X: 50
T:Marcha de San Benito según Foxo
M:2/4
L:1/16
Q:100
C:J. Benito Gonzalez
S:Os Dezas de Moneixas
K:C
{B}ED |: C4 {A}C3E | G8 | A6 Bc| G4 E4 |
{B}E4 (3C2D2E2 | D8 | G3F E3D | C4 {B}C3{B,}C | {A}C6 {B}ED | C6 ED| C4
{A}C3E |G8|
A6 Bc | G4 E4 | {B}E4 (3D2E2D2| C4 {A}C3{B,}C |1 {A}C6 ED :|2 C8 |: E8 |
C4 (3D2C2D2 | E8 | C4 {B}C4| {B}D8 | B,4 {G}(3B,2C2D2 | E6 (3FED | C8 
E8 | C4 {A}(3C2D2E2 | F8 | D4 {B}(3D2E2F2 | E4 (3C2D2E2 | D4 (3B,2C2D2 |
C4 {A}C3{B,}C| C8 :| 

